!!!SOCIAL_FUNCTION:	songs used in the treatment of the sick
!!!PDT:	1929
!!!OTL: No_52_Toward_the_Mountains.krn
!!!REG: Southwest
!!!LANG: Non-Tone
!!!LING_GROUP: Uto-Aztecan
**kern
*staff1
=1-
*clefF4
*k[f#c#]
*M2/4
8.B\L
16B\Jk
4A\
=2
2A\
=3
8.B\L
16A\Jk
8.B\L
16F#\Jk
=4
4E\
8E\
8r
=5!|:
4B\
8.A\L
16E\Jk
=6
4E\
8.E\L
16E\Jk
=7
8.F#\L
16E\Jk
8.F#\L
16E\Jk
=8
4D\
8BB/
8r
=9
4E\
8.D/L
16BB/Jk
=10||
*M3/4
2E\
8.D/L
16AA/Jk
=11||
*M2/4
4D\
[4D\
=12
2D\]
==:|!
*-
